X:817
T:Reel 817
M:4/4
K:Dmaj
L:1/8
A,2|D2D>F AFBF|AFdF FEEF|G2BG F2AF|EDEF G2FE|DddB AFDF|AFdB AFEF|GABG FAAF|GBAF D2|FA|dcdB A2FA|dcdB A2FD|EFGA BABd|Beed efdB|AcdA FAAc|dcBc d2FA|BdcA BGAF|GFEF G2|
